X: 7
T: Trip to Dilington    (C)
O: 1779
R: reel
S: Image from Darlene Wigton, June 2017
Z: 2017 John Chambers <jc:trillian.mit.edu>
N: The B part is repeated in the original, but the dancers didn't agree and the dance has 5 phrases.
L: 1/8
M: C
K: C
% - - - - - - - - - -
"A"|:\
"C"C2EG c2GE | c2GE "G"DB,A,G, |\
"C"C2EG c2GE | "G7"DCDE "C"C4 \
"B":|\
"C"E2GE "G"DGAB | "D"cA"G"BG "D7"^F2D2 |
"C"c2ec "G"BcdB | "D7"cAG^F "G"G4 \
"C"|:\
"C"C2EG cege | "Dm"dfAd "G7"cBAG |\
"C"C2EG cege |"G7"dcde "C"c4 :| [g2G,2]
% - - - - - - - - - -

%%sep 1 1 500
%%sep 1 1 500

